img/logotypes/invision-icon.svg

<svg width="65" height="64" viewBox="0 0 65 64" fill="none" xmlns="http://www.w3.org/2000/svg">
<g opacity="0.78" clip-path="url(#clip0_38_6)">
<path d="M0 4C0 1.79086 1.79086 0 4 0H61C63.2091 0 65 1.79086 65 4V59.8234C65 62.0325 63.2091 63.8234 61 63.8234H4C1.79086 63.8234 0 62.0325 0 59.8234V4Z" fill="#FF0066"/>
<path d="M22.1178 20.5381C24.1737 20.5087 25.819 18.8536 25.7992 16.8346C25.7792 14.8155 24.1016 13.192 22.0452 13.2017C19.9888 13.2114 18.3273 14.8506 18.327 16.8698C18.3287 17.3556 18.4283 17.8363 18.6201 18.2842C18.8119 18.732 19.092 19.1382 19.4444 19.4792C19.7968 19.8202 20.2145 20.0894 20.6733 20.2712C21.1321 20.453 21.6231 20.5438 22.1178 20.5384V20.5381Z" fill="white"/>
<path d="M14.258 40.178C14.0429 41.0813 13.9305 42.0053 13.9229 42.9329C13.9229 46.1622 15.7063 48.3065 19.4971 48.3065C22.6405 48.3065 25.191 46.4736 27.0242 43.5123L25.9034 47.9288H32.1434L35.7134 33.8877C36.6051 30.3288 38.3314 28.4832 40.9522 28.4832C43.0139 28.4832 44.2959 29.7417 44.2959 31.8224C44.3061 32.4893 44.2121 33.154 44.0176 33.7932L42.1793 40.2496C41.9164 41.1387 41.7852 42.0604 41.7896 42.9863C41.7896 46.0498 43.6279 48.2966 47.473 48.2966C50.7621 48.2966 53.383 46.2183 54.8312 41.2376L52.3793 40.3057C51.1521 43.6449 50.0941 44.2473 49.2593 44.2473C48.4247 44.2473 47.9748 43.7013 47.9748 42.6058C47.9989 42.0311 48.0923 41.4612 48.253 40.908L50.0393 34.6154C50.4403 33.3216 50.6471 31.9773 50.653 30.625C50.653 25.9173 47.7539 23.4615 44.2413 23.4615C40.9522 23.4615 37.6088 26.3742 35.9368 29.4405L37.1614 23.9362H27.6323L26.2934 28.7868H30.7551L28.0096 39.5705C25.8514 44.2782 21.8892 44.3547 21.3925 44.245C20.576 44.0635 20.056 43.7599 20.056 42.713C20.0799 41.8656 20.2109 41.0244 20.446 40.2087L24.6268 23.9235H14.0397L12.7034 28.7741H17.1051L14.258 40.178Z" fill="white"/>
</g>
<defs>
<clipPath id="clip0_38_6">
<rect width="65" height="63.8234" fill="white"/>
</clipPath>
</defs>
</svg>

<svg xmlns="http://www.w3.org/2000/svg" width="65" height="64" fill="none"><g clip-path="url(#a)" opacity=".78"><path fill="#F06" d="M0 4a4 4 0 0 1 4-4h57a4 4 0 0 1 4 4v55.82a4 4 0 0 1-4 4H4a4 4 0 0 1-4-4V4Z"/><path fill="#fff" d="M22.12 20.54a3.7 3.7 0 0 0 3.68-3.7 3.7 3.7 0 0 0-3.75-3.64 3.7 3.7 0 0 0-3.72 3.67 3.62 3.62 0 0 0 1.11 2.6 3.76 3.76 0 0 0 2.68 1.07ZM14.26 40.18c-.22.9-.33 1.83-.34 2.75 0 3.23 1.79 5.38 5.58 5.38 3.14 0 5.7-1.84 7.52-4.8l-1.12 4.42h6.24l3.57-14.04c.9-3.56 2.62-5.4 5.24-5.4 2.06 0 3.35 1.25 3.35 3.33 0 .67-.09 1.33-.28 1.97l-1.84 6.46a9.5 9.5 0 0 0-.39 2.74c0 3.06 1.84 5.3 5.68 5.3 3.3 0 5.91-2.07 7.36-7.05l-2.45-.93c-1.23 3.33-2.29 3.94-3.12 3.94-.84 0-1.29-.55-1.29-1.64.03-.58.12-1.15.28-1.7l1.79-6.3c.4-1.29.6-2.63.61-3.98 0-4.71-2.9-7.17-6.4-7.17-3.3 0-6.64 2.91-8.31 5.98l1.22-5.5h-9.53l-1.34 4.85h4.47L28 39.57c-2.16 4.7-6.12 4.78-6.62 4.67-.81-.18-1.33-.48-1.33-1.53.02-.84.15-1.69.39-2.5l4.18-16.29H14.04l-1.34 4.85h4.4l-2.84 11.4Z"/></g><defs><clipPath id="a"><path fill="#fff" d="M0 0h65v63.82H0z"/></clipPath></defs></svg>
